resources/svg/major-header.svg

<svg xmlns="http://www.w3.org/2000/svg" viewBox="0 0 20 20" fill="currentColor"><path d="M1 2.5v6.5h18v-6.5a1.5 1.5 0 0 0-1.5-1.5h-15a1.5 1.5 0 0 0-1.5 1.5zm1 16.5a1 1 0 0 1-1-1v-2h2v1h1v2h-2zm17-1a1 1 0 0 1-1 1h-2v-2h1v-1h2v2zm-18-4v-3h2v3h-2zm16-3v3h2v-3h-2zm-11 6h3v2h-3v-2zm8 0h-3v2h3v-2z"/></svg>

<svg xmlns="http://www.w3.org/2000/svg" viewBox="0 0 20 20" fill="currentColor"><path d="M1 2.5V9h18V2.5A1.5 1.5 0 0017.5 1h-15A1.5 1.5 0 001 2.5zM2 19a1 1 0 01-1-1v-2h2v1h1v2H2zM19 18a1 1 0 01-1 1h-2v-2h1v-1h2v2zM1 14v-3h2v3H1zM17 11v3h2v-3h-2zM6 17h3v2H6v-2zM14 17h-3v2h3v-2z" fill="#5C5F62"/></svg>
